docs/.gitbook/assets/icon-tennis-ball-16@dark.svg

<svg width="32" height="32" viewBox="0 0 16 16" fill="none" xmlns="http://www.w3.org/2000/svg">
<rect x="0" y="0" width="16" height="16" fill="#181c1f"/>
<path fill-rule="evenodd" clip-rule="evenodd" d="M2.5863 7.02421C5.98463 7.30601 8.69399 10.0154 8.97579 13.4137C11.2312 13.0099 13.0099 11.2312 13.4137 8.97579C10.0154 8.69399 7.30601 5.98463 7.02421 2.5863C4.76881 2.99012 2.99012 4.76881 2.5863 7.02421ZM13.4753 7.4753C10.8566 7.22745 8.77255 5.14344 8.5247 2.5247C11.1434 2.77255 13.2275 4.85655 13.4753 7.4753ZM2.52471 8.5247C5.14345 8.77255 7.22745 10.8566 7.4753 13.4753C4.85656 13.2275 2.77255 11.1434 2.52471 8.5247ZM1 8C1 4.13401 4.13401 1 8 1C11.866 1 15 4.13401 15 8C15 11.866 11.866 15 8 15C4.13401 15 1 11.866 1 8Z" fill="#fff"/>
</svg>

<svg xmlns="http://www.w3.org/2000/svg" width="32" height="32" fill="none" viewBox="0 0 16 16"><path fill="#181c1f" d="M0 0h16v16H0z"/><path fill="#fff" fill-rule="evenodd" d="M2.586 7.024a7 7 0 0 1 6.39 6.39 5.505 5.505 0 0 0 4.438-4.438 7 7 0 0 1-6.39-6.39 5.505 5.505 0 0 0-4.438 4.438m10.89.451a5.5 5.5 0 0 1-4.951-4.95 5.5 5.5 0 0 1 4.95 4.95M2.524 8.525a5.5 5.5 0 0 1 4.95 4.95 5.5 5.5 0 0 1-4.95-4.95M1 8a7 7 0 1 1 14 0A7 7 0 0 1 1 8" clip-rule="evenodd"/></svg>
